X:15703
T:Soled (CT 088)
R:Xiraldilla
C:Tradicional
S:Msica Tradicional Asturiana, (C) Tello & Tito. Asturies, 2001.
S:http://pagina.de/MusTradAst <telloytito@asturies.org>
N:Xiraldilla, dictada por Isabel Garca Bances, de veintisis aos, de Pravia.
O:Pravia
A:Asturies
Z:Cancioneru de Torner 088
M:3/8
L:1/8
Q:3/8=88
W:Soled de mi vida,
W:Quin te da pena
W:Las Campanas del alba
W:que me desvelan.
W:Soled!
W:
W:Si tanto te desvelan
W:morena ma,
W:mandar que las toquen
W:al medio da.
W:Soled!
K:C
|: d2 B|cAB|G G2|ccc|e d2-|d2 z|
d2 B|cAB|G G2|ccc|(Bd)B|A2 B|G3 :|
